build/category/AddCommentSolid.svg

<svg xmlns="http://www.w3.org/2000/svg" fill="none" viewBox="0 0 24 24" focusable="false"><path d="M0 0H24V24H0z"/><path fill="#74767B" fill-rule="evenodd" d="M4 8C4 6.34315 5.34315 5 7 5L17 5C18.6569 5 20 6.34315 20 8L20 14C20 15.6569 18.6569 17 17 17L9.52751 17L6.1121 19.7323C5.26091 20.4133 4 19.8073 4 18.7172L4 8ZM12.6403 8.49552C12.6403 8.13653 12.3493 7.84552 11.9903 7.84552C11.6313 7.84552 11.3403 8.13653 11.3403 8.49552L11.3403 10.3455L9.49033 10.3455C9.13135 10.3455 8.84033 10.6365 8.84033 10.9955C8.84033 11.3545 9.13135 11.6455 9.49033 11.6455L11.3403 11.6455L11.3403 13.4955C11.3403 13.8545 11.6313 14.1455 11.9903 14.1455C12.3493 14.1455 12.6403 13.8545 12.6403 13.4955L12.6403 11.6455L14.4903 11.6455C14.8493 11.6455 15.1403 11.3545 15.1403 10.9955C15.1403 10.6365 14.8493 10.3455 14.4903 10.3455L12.6403 10.3455L12.6403 8.49552Z"/></svg>

<svg xmlns="http://www.w3.org/2000/svg" fill="none" viewBox="0 0 24 24" focusable="false"><path fill="#74767B" fill-rule="evenodd" d="M4 8c0-1.66 1.34-3 3-3h10c1.65 0 3 1.34 3 3v6c0 1.65-1.35 3-3 3H9.52l-3.41 2.73c-.85.68-2.11.07-2.11-1.02zm8.64.49c0-.36-.3-.65-.65-.65-.36 0-.65.29-.65.65v1.85H9.49c-.36 0-.65.29-.65.65s.29.65.65.65h1.85v1.85c0 .36.29.65.65.65.35 0 .65-.29.65-.65v-1.85h1.85c.35 0 .65-.29.65-.65s-.3-.65-.65-.65h-1.85z"/></svg>
